X: 1183
T: Doherty's (A77)
N: page A77
N: hexatonic
R: Reel
M: 4/4
L: 1/8
K: Edor
"Em"E3D E2 FA|"D"BFAF DEFA|"Em" B3d e3d|(3Bcd "D"AF DEFD|
"Em"E3D E2 FA|"D" BFAF DEFA|"Em"B3d e3d |"D" BdAF FE D2::
"Em"ceed Beed |"D"(3Bcd AF DEFA|dffe f2 e2|dBAF DEFA|
"Em"Beed Beed|"D"(3Bcd AF DEFA|dffe d3A|"Em"(3Bcd AF "D"FE D2:|
